X:1
T:Buxtehude - Aria:  La Capricciosa in G Minor.
%%score { ( 1 2 5 ) | ( 3 4 ) }
L:1/8
Q:1/4=100
M:3/4
K:G
V:1 treble nm="Harpsichord" snm="Hch."
V:2 treble 
V:5 treble 
V:3 bass 
V:4 bass 
V:1
"^Partita 25"!mf! z (GB-d-) [Bd]2 | z2 z e- [ce]2 | z2 d2 c2 | z B3- BA | G4 A2 | z (GBe-) ed | %6
 z (EAc) z B | z (CEA) z G | z (B,DG) z F | G4[Q:1/4=50] G2 ::[Q:1/4=100] z (DGB) D2 | c4 z2 | %12
 z2 GA z c | B6 | z EGB- BA | G6 | z (AcF) (GE) | E3 F G2- | G2 G3 F | G4[Q:1/4=50] G2 :| %20
V:2
 x4 G2 | z G3 G2 | z G2 G- GF | G2 z E3 | z2 z E z D | x6 | x4 D2 | x6 | x6 | x4 [B,D]2 :: x6 | %11
 [EG]4 =F2 | z E3 F2 | z2 G4 | x6 | z2 E4 | x6 | z C3- CB,- | B,/C/PD C4 | x4 [B,D]2 :| %20
V:3
 x4 z D | x4 z B,- | B,4 A,2 | G,4 C2 | z G, B,2 x2 | z2 z2 B,2 | A,4 x2 | z2 z2 B,2 | z2 z2 A,2 | %9
 G,G,,B,,D, G,2 :: G,4- G,=F, | z2 G, C2 B, | C2 z2 z2 | z D- D4 | E,6 | z B,3 z2 | A,,4 B,,2 | %17
 z2 A,2 G,2- | G,/A,/PB, A,4 | G, z B,,D,- G,2 :| %20
V:4
 G,6 | C,6 | D,6 | E,6 | E,4 F,2 | G,6 | z2 A,,2 B,,2 | C,4 x2 | D,6 | x4 G,,2 :: x6 | z E,3 D,2 | %12
 C,4 A,,2 | G,,3 G, F,G, | x6 | E,3 D, C,B,, | x6 | C,4 E,2 | D,6 | z G,,3- [G,,D,]2 :| %20
V:5
 x6 | z2 c2- x2 | x6 | x2 G2 x2 | x6 | x6 | x6 | x6 | x6 | x6 :: x6 | x6 | x6 | x6 | x6 | x6 | x6 | %17
 x6 | x6 | x6 :| %20

